X: 38279
T: St. John's
R: reel
M: 4/4
K: Adorian
|:e~A3 e~A3|BAGB AGEF|~G3E ~G3B|AGEG A4|
e~A3 e~A3|BAGB AGEF|~G3E ~G3B|AGEG A4:|
|:eaag ~a3a|bagb agef|~g3e d~B3|e~B3 e~B3|
egag ~a3a|bagb agef|~g3e d~B3|AGEG A4:|

